<?xml version="1.0" encoding="UTF-8"?>
<map version="1.10" tiledversion="1.11.2" orientation="orthogonal" renderorder="right-down" width="5" height="8" tilewidth="64" tileheight="64" infinite="0" nextlayerid="2" nextobjectid="1">
 <tileset firstgid="1" source="../GumProject/TileMaps/Tiled/TileSet1.tsx"/>
 <layer id="1" name="Слой тайлов 1" width="5" height="8">
  <data encoding="csv">
6,2,2,2,7,
9,4,4,4,8,
21,20,20,20,22,
19,35,31,36,17,
19,32,30,34,17,
19,32,30,34,17,
19,37,33,38,17,
24,18,18,18,23
</data>
 </layer>
</map>
